icons/modern/love-letter.svg

<svg width="32" height="32" viewBox="0 0 32 32" fill="none" xmlns="http://www.w3.org/2000/svg">
<rect x="2" y="6" width="28" height="20" rx="2" fill="url(#paint0_radial_6990_5054)"/>
<rect x="2" y="6" width="28" height="20" rx="2" fill="url(#paint1_linear_6990_5054)"/>
<g filter="url(#filter0_f_6990_5054)">
<path d="M15.643 23.5948C15.9322 23.7659 16.2877 23.75 16.5728 23.572C18.6115 22.299 22.0027 19.7458 23.3616 16.3429C25.3467 11.9336 20.6738 8.49029 17.4525 11.0219C17.1018 11.2974 16.6267 11.7017 16.3225 12.0369C16.2104 12.1604 16.005 12.171 15.8903 12.0499C15.5226 11.6622 14.9345 11.1062 14.5402 10.8395C11.794 8.98145 6.80915 11.3541 8.94062 16.5811C9.71919 18.9207 13.53 22.3444 15.643 23.5948Z" fill="#CCC1D3"/>
</g>
<path d="M2 8C2 6.89543 2.89543 6 4 6H5V26H4C2.89543 26 2 25.1046 2 24V8Z" fill="url(#paint2_linear_6990_5054)"/>
<path d="M2 8C2 6.89543 2.89543 6 4 6H28C29.1046 6 30 6.89543 30 8V8H2V8Z" fill="url(#paint3_linear_6990_5054)"/>
<path d="M27 6H28C29.1046 6 30 6.89543 30 8V24C30 25.1046 29.1046 26 28 26H27V6Z" fill="url(#paint4_linear_6990_5054)"/>
<path d="M2 21H30V24C30 25.1046 29.1046 26 28 26H4C2.89543 26 2 25.1046 2 24V21Z" fill="url(#paint5_linear_6990_5054)"/>
<path fill-rule="evenodd" clip-rule="evenodd" d="M2.12422 24.6954C2.04389 24.4788 2 24.2446 2 24V23.5892L12.2316 17.0782L12.7684 17.9218L2.12422 24.6954Z" fill="#C2B4CB"/>
<path fill-rule="evenodd" clip-rule="evenodd" d="M30 23.5892V24C30 24.2446 29.9561 24.4788 29.8758 24.6954L19.2316 17.9218L19.7684 17.0782L30 23.5892Z" fill="#CEC4D7"/>
<path fill-rule="evenodd" clip-rule="evenodd" d="M2.12107 7.31311C2.04274 7.52732 2 7.75866 2 7.99999V8.43425L10.2226 13.916L10.7774 13.084L2.12107 7.31311Z" fill="#C5B9C4"/>
<path fill-rule="evenodd" clip-rule="evenodd" d="M29.8789 7.31311C29.9573 7.52731 30 7.75866 30 7.99999V8.43425L21.7774 13.916L21.2227 13.084L29.8789 7.31311Z" fill="#D5CFDA"/>
<path d="M16.1311 22.7938C16.4207 22.9645 16.7763 22.9485 17.0615 22.7707C19.1612 21.4617 22.6687 18.8263 24.0724 15.3113C26.1183 10.7667 21.3021 7.2178 17.982 9.82703C17.618 10.1131 17.1237 10.5338 16.8104 10.8808C16.6986 11.0046 16.4935 11.0151 16.3789 10.894C16.0004 10.494 15.3894 9.91567 14.9805 9.63902C12.15 7.72403 7.01227 10.1694 9.20912 15.5568C10.0133 17.9733 13.9562 21.5121 16.1311 22.7938Z" fill="url(#paint6_radial_6990_5054)"/>
<path d="M16.1311 22.7938C16.4207 22.9645 16.7763 22.9485 17.0615 22.7707C19.1612 21.4617 22.6687 18.8263 24.0724 15.3113C26.1183 10.7667 21.3021 7.2178 17.982 9.82703C17.618 10.1131 17.1237 10.5338 16.8104 10.8808C16.6986 11.0046 16.4935 11.0151 16.3789 10.894C16.0004 10.494 15.3894 9.91567 14.9805 9.63902C12.15 7.72403 7.01227 10.1694 9.20912 15.5568C10.0133 17.9733 13.9562 21.5121 16.1311 22.7938Z" fill="url(#paint7_radial_6990_5054)"/>
<path d="M16.1311 22.7938C16.4207 22.9645 16.7763 22.9485 17.0615 22.7707C19.1612 21.4617 22.6687 18.8263 24.0724 15.3113C26.1183 10.7667 21.3021 7.2178 17.982 9.82703C17.618 10.1131 17.1237 10.5338 16.8104 10.8808C16.6986 11.0046 16.4935 11.0151 16.3789 10.894C16.0004 10.494 15.3894 9.91567 14.9805 9.63902C12.15 7.72403 7.01227 10.1694 9.20912 15.5568C10.0133 17.9733 13.9562 21.5121 16.1311 22.7938Z" fill="url(#paint8_linear_6990_5054)"/>
<path d="M16.1311 22.7938C16.4207 22.9645 16.7763 22.9485 17.0615 22.7707C19.1612 21.4617 22.6687 18.8263 24.0724 15.3113C26.1183 10.7667 21.3021 7.2178 17.982 9.82703C17.618 10.1131 17.1237 10.5338 16.8104 10.8808C16.6986 11.0046 16.4935 11.0151 16.3789 10.894C16.0004 10.494 15.3894 9.91567 14.9805 9.63902C12.15 7.72403 7.01227 10.1694 9.20912 15.5568C10.0133 17.9733 13.9562 21.5121 16.1311 22.7938Z" fill="url(#paint9_radial_6990_5054)" fill-opacity="0.75"/>
<g filter="url(#filter1_f_6990_5054)">
<path d="M13.0625 10.8125C14.4905 11.2205 15.5023 12.0446 16.1659 12.8095C16.439 13.1243 16.5625 13.5366 16.5625 13.9534V18.1875" stroke="url(#paint10_linear_6990_5054)" stroke-opacity="0.6" stroke-linecap="round"/>
</g>
<g filter="url(#filter2_f_6990_5054)">
<path d="M22.0625 10.625C23.5938 11.6562 23.5625 13.3438 23.4062 14.0312" stroke="url(#paint11_linear_6990_5054)" stroke-opacity="0.6" stroke-linecap="round"/>
</g>
<g opacity="0.5" filter="url(#filter3_f_6990_5054)">
<rect x="27.9587" y="7.31311" width="1" height="16.1869" fill="white"/>
</g>
<defs>
<filter id="filter0_f_6990_5054" x="6.42455" y="8.16199" width="19.4123" height="17.5527" filterUnits="userSpaceOnUse" color-interpolation-filters="sRGB">
<feFlood flood-opacity="0" result="BackgroundImageFix"/>
<feBlend mode="normal" in="SourceGraphic" in2="BackgroundImageFix" result="shape"/>
<feGaussianBlur stdDeviation="1" result="effect1_foregroundBlur_6990_5054"/>
</filter>
<filter id="filter1_f_6990_5054" x="10.5624" y="8.31238" width="8.50013" height="12.3751" filterUnits="userSpaceOnUse" color-interpolation-filters="sRGB">
<feFlood flood-opacity="0" result="BackgroundImageFix"/>
<feBlend mode="normal" in="SourceGraphic" in2="BackgroundImageFix" result="shape"/>
<feGaussianBlur stdDeviation="1" result="effect1_foregroundBlur_6990_5054"/>
</filter>
<filter id="filter2_f_6990_5054" x="19.5624" y="8.12494" width="6.41398" height="8.40643" filterUnits="userSpaceOnUse" color-interpolation-filters="sRGB">
<feFlood flood-opacity="0" result="BackgroundImageFix"/>
<feBlend mode="normal" in="SourceGraphic" in2="BackgroundImageFix" result="shape"/>
<feGaussianBlur stdDeviation="1" result="effect1_foregroundBlur_6990_5054"/>
</filter>
<filter id="filter3_f_6990_5054" x="25.4587" y="4.81311" width="6" height="21.1869" filterUnits="userSpaceOnUse" color-interpolation-filters="sRGB">
<feFlood flood-opacity="0" result="BackgroundImageFix"/>
<feBlend mode="normal" in="SourceGraphic" in2="BackgroundImageFix" result="shape"/>
<feGaussianBlur stdDeviation="1.25" result="effect1_foregroundBlur_6990_5054"/>
</filter>
<radialGradient id="paint0_radial_6990_5054" cx="0" cy="0" r="1" gradientUnits="userSpaceOnUse" gradientTransform="translate(24 9.5) rotate(141.746) scale(33.1097 46.3535)">
<stop stop-color="#F3EFF9"/>
<stop offset="0.480094" stop-color="#E9E2EA"/>
<stop offset="0.676097" stop-color="#E8D2F5"/>
</radialGradient>
<linearGradient id="paint1_linear_6990_5054" x1="-0.875" y1="-0.625" x2="14.375" y2="16" gradientUnits="userSpaceOnUse">
<stop stop-color="#E3C3C4" stop-opacity="0.6"/>
<stop offset="1" stop-color="#E1C0C2" stop-opacity="0"/>
</linearGradient>
<linearGradient id="paint2_linear_6990_5054" x1="2" y1="16" x2="5" y2="16" gradientUnits="userSpaceOnUse">
<stop stop-color="#E3C3C4"/>
<stop offset="1" stop-color="#E1C0C2" stop-opacity="0"/>
</linearGradient>
<linearGradient id="paint3_linear_6990_5054" x1="16" y1="6" x2="16" y2="7.5" gradientUnits="userSpaceOnUse">
<stop stop-color="#DEDEDE"/>
<stop offset="1" stop-color="#E8E4E8" stop-opacity="0"/>
</linearGradient>
<linearGradient id="paint4_linear_6990_5054" x1="30" y1="16" x2="27" y2="16" gradientUnits="userSpaceOnUse">
<stop stop-color="#DEDEDE"/>
<stop offset="1" stop-color="#E8E4E8" stop-opacity="0"/>
</linearGradient>
<linearGradient id="paint5_linear_6990_5054" x1="16" y1="21" x2="16" y2="26" gradientUnits="userSpaceOnUse">
<stop stop-color="#DCC8EF" stop-opacity="0"/>
<stop offset="1" stop-color="#C79BE7"/>
</linearGradient>
<radialGradient id="paint6_radial_6990_5054" cx="0" cy="0" r="1" gradientUnits="userSpaceOnUse" gradientTransform="translate(19.3015 11.6875) rotate(90) scale(14.3125 27.6487)">
<stop stop-color="#F12E52"/>
<stop offset="0.596003" stop-color="#FF3B79"/>
<stop offset="1" stop-color="#FF4EC6"/>
</radialGradient>
<radialGradient id="paint7_radial_6990_5054" cx="0" cy="0" r="1" gradientUnits="userSpaceOnUse" gradientTransform="translate(20.5625 12.5) rotate(142.986) scale(14.95 28.0029)">
<stop offset="0.483055" stop-color="#C12372" stop-opacity="0"/>
<stop offset="0.833898" stop-color="#C12372"/>
</radialGradient>
<linearGradient id="paint8_linear_6990_5054" x1="16.5625" y1="13.75" x2="16.5625" y2="24.5079" gradientUnits="userSpaceOnUse">
<stop offset="0.151052" stop-color="#C12372" stop-opacity="0"/>
<stop offset="0.894692" stop-color="#C12372"/>
</linearGradient>
<radialGradient id="paint9_radial_6990_5054" cx="0" cy="0" r="1" gradientUnits="userSpaceOnUse" gradientTransform="translate(16.3125 21.75) rotate(-90) scale(14 20.5463)">
<stop offset="0.71875" stop-color="#FF7033" stop-opacity="0"/>
<stop offset="1" stop-color="#FF7033"/>
</radialGradient>
<linearGradient id="paint10_linear_6990_5054" x1="15.6563" y1="10.1563" x2="18.619" y2="11.252" gradientUnits="userSpaceOnUse">
<stop stop-color="#FF9E75"/>
<stop offset="1" stop-color="#FF9E75" stop-opacity="0"/>
</linearGradient>
<linearGradient id="paint11_linear_6990_5054" x1="22.6251" y1="10.156" x2="25.5879" y2="11.2518" gradientUnits="userSpaceOnUse">
<stop stop-color="#FF9E75"/>
<stop offset="1" stop-color="#FF9E75" stop-opacity="0"/>
</linearGradient>
</defs>
</svg>

<svg width="32" height="32" fill="none" xmlns="http://www.w3.org/2000/svg"><rect x="2" y="6" width="28" height="20" rx="2" fill="url(#a)"/><rect x="2" y="6" width="28" height="20" rx="2" fill="url(#b)"/><g filter="url(#c)"><path d="M15.643 23.595c.29.17.645.155.93-.023 2.038-1.273 5.43-3.826 6.789-7.23 1.985-4.408-2.688-7.852-5.91-5.32-.35.275-.825.68-1.13 1.015-.112.123-.317.134-.432.013-.367-.388-.956-.944-1.35-1.21-2.746-1.859-7.73.514-5.6 5.741.78 2.34 4.59 5.763 6.703 7.014Z" fill="#CCC1D3"/></g><path d="M2 8a2 2 0 0 1 2-2h1v20H4a2 2 0 0 1-2-2V8Z" fill="url(#d)"/><path d="M2 8a2 2 0 0 1 2-2h24a2 2 0 0 1 2 2H2Z" fill="url(#e)"/><path d="M27 6h1a2 2 0 0 1 2 2v16a2 2 0 0 1-2 2h-1V6Z" fill="url(#f)"/><path d="M2 21h28v3a2 2 0 0 1-2 2H4a2 2 0 0 1-2-2v-3Z" fill="url(#g)"/><path fill-rule="evenodd" clip-rule="evenodd" d="M2.124 24.695A1.996 1.996 0 0 1 2 24v-.41l10.232-6.512.536.844-10.644 6.773Z" fill="#C2B4CB"/><path fill-rule="evenodd" clip-rule="evenodd" d="M30 23.59V24c0 .245-.044.479-.124.695l-10.644-6.773.536-.844L30 23.59Z" fill="#CEC4D7"/><path fill-rule="evenodd" clip-rule="evenodd" d="M2.121 7.313A1.996 1.996 0 0 0 2 8v.434l8.223 5.482.554-.832-8.656-5.77Z" fill="#C5B9C4"/><path fill-rule="evenodd" clip-rule="evenodd" d="M29.879 7.313c.078.214.121.446.121.687v.434l-8.223 5.482-.554-.832 8.656-5.77Z" fill="#D5CFDA"/><path d="M16.131 22.794c.29.17.645.154.93-.023 2.1-1.31 5.608-3.945 7.011-7.46 2.046-4.544-2.77-8.093-6.09-5.484-.364.286-.858.707-1.172 1.054-.111.124-.316.134-.431.013-.379-.4-.99-.978-1.399-1.255-2.83-1.915-7.968.53-5.77 5.918.803 2.416 4.746 5.955 6.921 7.237Z" fill="url(#h)"/><path d="M16.131 22.794c.29.17.645.154.93-.023 2.1-1.31 5.608-3.945 7.011-7.46 2.046-4.544-2.77-8.093-6.09-5.484-.364.286-.858.707-1.172 1.054-.111.124-.316.134-.431.013-.379-.4-.99-.978-1.399-1.255-2.83-1.915-7.968.53-5.77 5.918.803 2.416 4.746 5.955 6.921 7.237Z" fill="url(#i)"/><path d="M16.131 22.794c.29.17.645.154.93-.023 2.1-1.31 5.608-3.945 7.011-7.46 2.046-4.544-2.77-8.093-6.09-5.484-.364.286-.858.707-1.172 1.054-.111.124-.316.134-.431.013-.379-.4-.99-.978-1.399-1.255-2.83-1.915-7.968.53-5.77 5.918.803 2.416 4.746 5.955 6.921 7.237Z" fill="url(#j)"/><path d="M16.131 22.794c.29.17.645.154.93-.023 2.1-1.31 5.608-3.945 7.011-7.46 2.046-4.544-2.77-8.093-6.09-5.484-.364.286-.858.707-1.172 1.054-.111.124-.316.134-.431.013-.379-.4-.99-.978-1.399-1.255-2.83-1.915-7.968.53-5.77 5.918.803 2.416 4.746 5.955 6.921 7.237Z" fill="url(#k)" fill-opacity=".75"/><g filter="url(#l)"><path d="M13.063 10.813a6.443 6.443 0 0 1 3.103 1.996c.273.315.396.728.396 1.144v4.235" stroke="url(#m)" stroke-opacity=".6" stroke-linecap="round"/></g><g filter="url(#n)"><path d="M22.063 10.625c1.53 1.031 1.5 2.719 1.343 3.406" stroke="url(#o)" stroke-opacity=".6" stroke-linecap="round"/></g><g opacity=".5" filter="url(#p)"><path fill="#fff" d="M27.959 7.313h1V23.5h-1z"/></g><defs><linearGradient id="b" x1="-.875" y1="-.625" x2="14.375" y2="16" gradientUnits="userSpaceOnUse"><stop stop-color="#E3C3C4" stop-opacity=".6"/><stop offset="1" stop-color="#E1C0C2" stop-opacity="0"/></linearGradient><linearGradient id="d" x1="2" y1="16" x2="5" y2="16" gradientUnits="userSpaceOnUse"><stop stop-color="#E3C3C4"/><stop offset="1" stop-color="#E1C0C2" stop-opacity="0"/></linearGradient><linearGradient id="e" x1="16" y1="6" x2="16" y2="7.5" gradientUnits="userSpaceOnUse"><stop stop-color="#DEDEDE"/><stop offset="1" stop-color="#E8E4E8" stop-opacity="0"/></linearGradient><linearGradient id="f" x1="30" y1="16" x2="27" y2="16" gradientUnits="userSpaceOnUse"><stop stop-color="#DEDEDE"/><stop offset="1" stop-color="#E8E4E8" stop-opacity="0"/></linearGradient><linearGradient id="g" x1="16" y1="21" x2="16" y2="26" gradientUnits="userSpaceOnUse"><stop stop-color="#DCC8EF" stop-opacity="0"/><stop offset="1" stop-color="#C79BE7"/></linearGradient><linearGradient id="j" x1="16.563" y1="13.75" x2="16.563" y2="24.508" gradientUnits="userSpaceOnUse"><stop offset=".151" stop-color="#C12372" stop-opacity="0"/><stop offset=".895" stop-color="#C12372"/></linearGradient><linearGradient id="m" x1="15.656" y1="10.156" x2="18.619" y2="11.252" gradientUnits="userSpaceOnUse"><stop stop-color="#FF9E75"/><stop offset="1" stop-color="#FF9E75" stop-opacity="0"/></linearGradient><linearGradient id="o" x1="22.625" y1="10.156" x2="25.588" y2="11.252" gradientUnits="userSpaceOnUse"><stop stop-color="#FF9E75"/><stop offset="1" stop-color="#FF9E75" stop-opacity="0"/></linearGradient><radialGradient id="a" cx="0" cy="0" r="1" gradientUnits="userSpaceOnUse" gradientTransform="matrix(-26.00018 20.49983 -28.69971 -36.40018 24 9.5)"><stop stop-color="#F3EFF9"/><stop offset=".48" stop-color="#E9E2EA"/><stop offset=".676" stop-color="#E8D2F5"/></radialGradient><radialGradient id="h" cx="0" cy="0" r="1" gradientUnits="userSpaceOnUse" gradientTransform="matrix(0 14.3125 -27.6487 0 19.302 11.688)"><stop stop-color="#F12E52"/><stop offset=".596" stop-color="#FF3B79"/><stop offset="1" stop-color="#FF4EC6"/></radialGradient><radialGradient id="i" cx="0" cy="0" r="1" gradientUnits="userSpaceOnUse" gradientTransform="matrix(-11.9374 9.00005 -16.85803 -22.36 20.563 12.5)"><stop offset=".483" stop-color="#C12372" stop-opacity="0"/><stop offset=".834" stop-color="#C12372"/></radialGradient><radialGradient id="k" cx="0" cy="0" r="1" gradientUnits="userSpaceOnUse" gradientTransform="matrix(0 -14 20.5463 0 16.313 21.75)"><stop offset=".719" stop-color="#FF7033" stop-opacity="0"/><stop offset="1" stop-color="#FF7033"/></radialGradient><filter id="c" x="6.425" y="8.162" width="19.412" height="17.553" filterUnits="userSpaceOnUse" color-interpolation-filters="sRGB"><feFlood flood-opacity="0" result="BackgroundImageFix"/><feBlend in="SourceGraphic" in2="BackgroundImageFix" result="shape"/><feGaussianBlur stdDeviation="1" result="effect1_foregroundBlur_6990_5054"/></filter><filter id="l" x="10.562" y="8.312" width="8.5" height="12.375" filterUnits="userSpaceOnUse" color-interpolation-filters="sRGB"><feFlood flood-opacity="0" result="BackgroundImageFix"/><feBlend in="SourceGraphic" in2="BackgroundImageFix" result="shape"/><feGaussianBlur stdDeviation="1" result="effect1_foregroundBlur_6990_5054"/></filter><filter id="n" x="19.562" y="8.125" width="6.414" height="8.406" filterUnits="userSpaceOnUse" color-interpolation-filters="sRGB"><feFlood flood-opacity="0" result="BackgroundImageFix"/><feBlend in="SourceGraphic" in2="BackgroundImageFix" result="shape"/><feGaussianBlur stdDeviation="1" result="effect1_foregroundBlur_6990_5054"/></filter><filter id="p" x="25.459" y="4.813" width="6" height="21.187" filterUnits="userSpaceOnUse" color-interpolation-filters="sRGB"><feFlood flood-opacity="0" result="BackgroundImageFix"/><feBlend in="SourceGraphic" in2="BackgroundImageFix" result="shape"/><feGaussianBlur stdDeviation="1.25" result="effect1_foregroundBlur_6990_5054"/></filter></defs></svg>
